render/icons/doubao.svg

<svg width="40" height="40" viewBox="0 0 40 40" fill="none" xmlns="http://www.w3.org/2000/svg">
<rect width="40" height="40" rx="8" fill="white"/>
<g clip-path="url(#clip0_2154_22614)">
<path d="M11.6377 24.6952C11.8527 20.0077 13.9915 17.1965 14.824 16.2715C10.749 18.844 8.04271 23.344 6.87646 26.6565V28.0565C6.87646 31.8915 10.2827 35.0002 14.4877 35.0002C15.4244 35.0015 16.3544 34.8429 17.2377 34.5315C17.679 34.3815 18.1127 34.2215 18.5365 34.059C19.6777 32.9352 20.599 31.6715 21.3402 30.319C15.244 33.3577 11.3727 30.409 11.6365 24.694L11.6377 24.6952Z" fill="#1E37FC"/>
<path d="M33.2124 17.8535C31.6974 16.7273 28.0761 14.8485 23.9661 14.3535C24.3349 19.0935 24.0824 25.311 21.3411 30.3198C20.5946 31.6972 19.6494 32.9574 18.5361 34.0598C23.2411 32.2498 26.9686 29.7385 29.2811 27.536C32.8061 24.1823 33.4724 21.0635 33.4824 19.211C33.4855 18.7457 33.3936 18.2846 33.2124 17.856V17.8535Z" fill="#37E1BE"/>
<path d="M22.8787 7.33375C21.1938 5.875 19.06 5 16.7375 5C14.415 5 12.3538 5.84625 10.6813 7.25875C8.48875 9.1125 7.03375 11.9462 6.875 15.1562V26.6575C8.04 23.345 10.7462 18.845 14.8212 16.2738C15.4462 15.8763 16.1025 15.53 16.7825 15.2375C19.1362 14.2362 21.63 14.0725 23.965 14.355C23.6875 10.8175 23.0675 8.1025 22.8775 7.33375H22.8787Z" fill="#A569FF"/>
<path d="M26.6311 11.2015C26.1793 10.7474 25.7293 10.2916 25.2811 9.83398C25.0286 9.56773 24.7836 9.31023 24.5486 9.05648L22.8823 7.33398C23.0711 8.10273 23.6923 10.8165 23.9686 14.3552C28.0786 14.849 31.6998 16.7277 33.2136 17.8552C31.5811 16.2615 28.8698 13.4965 26.6311 11.2015Z" fill="#1E37FC"/>
</g>
<defs>
<clipPath id="clip0_2154_22614">
<rect width="30" height="30" fill="white" transform="translate(5 5)"/>
</clipPath>
</defs>
</svg>

<svg xmlns="http://www.w3.org/2000/svg" width="40" height="40" fill="none">
  <rect width="40" height="40" fill="#fff" rx="8"/>
  <g clip-path="url(#a)">
    <path fill="#1E37FC" d="M11.638 24.695c.215-4.687 2.354-7.498 3.186-8.424-4.075 2.573-6.781 7.073-7.948 10.386v1.4c0 3.835 3.407 6.943 7.612 6.943a8.237 8.237 0 0 0 2.75-.468c.441-.15.875-.31 1.299-.473a16.012 16.012 0 0 0 2.803-3.74c-6.096 3.039-9.967.09-9.704-5.625l.002.001Z"/>
    <path fill="#37E1BE" d="M33.212 17.854c-1.515-1.127-5.136-3.005-9.246-3.5.369 4.74.116 10.957-2.625 15.966a15.977 15.977 0 0 1-2.805 3.74c4.705-1.81 8.433-4.322 10.745-6.524 3.525-3.354 4.191-6.473 4.201-8.325a3.421 3.421 0 0 0-.27-1.355v-.003Z"/>
    <path fill="#A569FF" d="M22.879 7.334C21.194 5.875 19.06 5 16.737 5c-2.322 0-4.383.846-6.056 2.259-2.192 1.854-3.647 4.687-3.806 7.897v11.501c1.165-3.312 3.871-7.812 7.946-10.383a13.86 13.86 0 0 1 1.961-1.037c2.354-1 4.848-1.165 7.183-.882-.277-3.537-.898-6.253-1.087-7.021Z"/>
    <path fill="#1E37FC" d="M26.631 11.201c-.452-.454-.902-.91-1.35-1.367-.252-.266-.497-.524-.732-.778l-1.667-1.722c.19.769.81 3.482 1.087 7.021 4.11.494 7.73 2.373 9.245 3.5-1.633-1.593-4.344-4.359-6.583-6.654Z"/>
  </g>
  <defs>
    <clipPath id="a">
      <path fill="#fff" d="M5 5h30v30H5z"/>
    </clipPath>
  </defs>
</svg>
